X:1
T:Grace Is Free
T:Grace Is Free
T:William James Kirkpatrick
T:Emma Mansfield Johnston, 1888
T:Public Domain Courtesy of the Cyber Hymnal™
T:Public Domain Courtesy of the Cyber Hymnal™
C:William James Kirkpatrick
Z:Public Domain
Z:Courtesy of the Cyber Hymnal™
%%score ( 1 2 ) ( 3 4 )
L:1/8
Q:1/4=110
M:4/4
K:F
V:1 treble 
V:2 treble 
V:3 bass 
V:4 bass 
V:1
 (FG) | [FA]2 [FA]2 [FA]2 [FA]2 | [FB]2 [FA]2 (AG) F2 | [FA]2 [EG]2 [EG]4 | %4
w: 1.~There’s *|no- thing like the|old, old sto- * ry,|Grace is free,|
w: 2.~There’s *|on- ly hope in|trust- ing Je- * sus,|Grace is free,|
w: 3.~From *|age to age the|theme is tell- * ing,|Grace is free,|
 [GB]2 [FA]2 [FA]2 (FG) | [FA]2 [FA]2 [FA]2 [FA]2 | [FB]2 [FA]2 (AG) F2 | %7
w: grace is free! Which *|saints and mar- tyrs|tell in glo- * ry,|
w: grace is free! From *|sin that doomed, He|died to free * us,|
w: grace is free! From *|shore to shore the|strains are swell- * ing,|
 [EG]2 [EG]2 !fermata![Ec]4 | [CE]2 [CG]2 !fermata![CF]2 F2 | [Fd]2 [Fd]2 [Fd]3 [Fd] | %10
w: Grace is free,|grace is free! It|brought them thro’ the|
w: Grace is free,|grace is free! Who|would not tell the|
w: Grace is free,|grace is free! And|when that time shall|
 [Fd]2 [Fc]2 [Fc]3 [FA] | [Ec]2 [EB]2 [EB]2 [EG]2 | [GB]2 [FA]2 [FA]2 F2 | [Fd]3 [Fd] [Fd]2 [Fd]2 | %14
w: flood and flame, By|it they fought and|o- ver- came, And|now they cry thro’|
w: sto- ry sweet Of|love so won- drous,|so com- plete, And|fall in rap- ture|
w: cease to be, And|faith is crowned with|vic- to- ry, ’Twill|sound thro’ all e-|
 [Fd]2 [Fc]2 [Fc]4 | [Ec]2 [EG]2 [Ec]4 | [F=B]2 [Fd]2 !fermata![Ec]2 ||"^Refrain" (FG) | %18
w: His dear name,|Grace is free,|grace is free!||
w: at His feet,|Grace is free,|grace is free!|There’s *|
w: ter- ni- ty,|Grace is free,|grace is free!||
 [FA]2 [FA]2 [FA]2 [FA]2 | [FB]2 [FA]2 (AG) F2 | [FA]2 [EG]2 [EG]4 | [GB]2 [FA]2 [FA]2 (FG) | %22
w: ||||
w: no- thing like the|old, old sto- * ry,|Grace is free,|grace is free! Which *|
w: ||||
 [FA]2 [FA]2 [FA]2 [FA]2 | [FB]2 [FA]2 (AG) F2 | [EG]2 [EG]2 !fermata![Ec]4 | %25
w: |||
w: saints and mar- tyrs|tell in glo- * ry,|Grace is free,|
w: |||
 [CE]2 [CG]2 !fermata![CF]2 |] %26
w: |
w: grace is free!|
w: |
V:2
 F2 | x8 | x4 F2 F2 | x8 | x6 F2 | x8 | x4 F2 F2 | x8 | x6 F2 | x8 | x8 | x8 | x6 F2 | x8 | x8 | %15
 x8 | x6 || F2 | x8 | x4 F2 F2 | x8 | x6 F2 | x8 | x4 F2 F2 | x8 | x6 |] %26
V:3
 (A,B,) | [F,C]2 [F,C]2 [F,C]2 [F,C]2 | [F,D]2 [F,C]2 (CB,) [F,A,]2 | [C,C]2 [C,C]2 [C,C]4 | %4
 [F,C]2 [F,C]2 [F,C]2 (A,B,) | [F,C]2 [F,C]2 [F,C]2 [F,C]2 | [F,D]2 [F,C]2 (CB,) [F,A,]2 | %7
 [C,C]2 [C,C]2 !fermata![C,G,]4 | [C,G,]2 [C,B,]2 !fermata![F,A,]2 [F,A,]2 | %9
 [B,,B,]2 [B,,B,]2 [B,,B,]3 [B,,B,] | [F,B,]2 [F,A,]2 [F,A,]3 [F,A,] | %11
 [C,G,]2 [C,G,]2 [C,G,]2 [C,C]2 | [F,C]2 [F,C]2 [F,C]2 [F,A,]2 | %13
 [B,,B,]3 [B,,B,] [B,,B,]2 [B,,B,]2 | [F,B,]2 [F,A,]2 [F,A,]4 | G,2 [G,C]2 [G,C]4 | %16
 [G,D]2 [G,=B,]2 !fermata![C,G,]2 || (A,B,) | [F,C]2 [F,C]2 [F,C]2 [F,C]2 | %19
 [F,D]2 [F,C]2 (CB,) [F,A,]2 | [C,C]2 [C,C]2 [C,C]4 | [F,C]2 [F,C]2 [F,C]2 (A,B,) | %22
 [F,C]2 [F,C]2 [F,C]2 [F,C]2 | [F,D]2 [F,C]2 (CB,) [F,A,]2 | [C,C]2 [C,C]2 !fermata![C,G,]4 | %25
 [C,G,]2 [C,B,]2 !fermata![F,A,]2 |] %26
V:4
 F,2 | x8 | x4 F,2 x2 | x8 | x6 F,2 | x8 | x4 F,2 x2 | x8 | x8 | x8 | x8 | x8 | x8 | x8 | x8 | %15
 G,2 x6 | x6 || F,2 | x8 | x4 F,2 x2 | x8 | x6 F,2 | x8 | x4 F,2 x2 | x8 | x6 |] %26

